X:1
T:Macbeth
T:Mackbeth
T:Cartwright MS - pdf 73a
T:Plainway
T:ffeff
C:Plainway
Z:ffeff
%%score 1 2
L:1/8
Q:1/2=80
M:3/4
K:G
V:1 tab stafflines=6 strings=D2,G2,C3,E3,A3,D4 nostems nm="Viola da gamba" snm="Vla. d. g."
V:2 bass nm="Viola da gamba" snm="Vla. d. g."
V:1
 !1!D2 |: !1!D4 !1!E2 | !1!D3 !2!C !2!B,2 | !2!A,4 !3!G,2 | !2!A,4 !2!B,2 | !2!C3 !1!D !1!E2 | %6
 !1!D2 (!2!C2 !2!B,2) | !2!A,4 !3!G,2 | !3!G,4 !5!G,,2 :| !2!A,4 !2!B,2 | !2!A,4 !2!B,2 | %11
 !2!A,3 !3!G, !3!F,2 | !3!G,4 !2!A,2 | !2!B,4 !2!A,2 | !2!B,3 !2!C !1!D2 | !2!B,2 (!2!A,2 !3!G,2) | %16
 !2!A,2 !2!B,4 | !2!C4 !1!D2 | !1!E4 !1!D2 | !2!C2 !2!B,4 | !2!A,4 !3!G,2 | !3!F,4 !3!G,2 | %22
 !2!A,2 !2!B,2 !2!C2 | !2!B,2 !2!C2 !1!D2 | !2!A,4 !3!G,2 | !3!G,4 !5!G,,2 |] %26
V:2
 D2 |: D4 E2 | D3 C B,2 | A,4 G,2 | A,4 B,2 | C3 D E2 | D2 (C2 B,2) | A,4 G,2 | G,4 G,,2 :| %9
 A,4 B,2 | A,4 B,2 | A,3 G, F,2 | G,4 A,2 | B,4 A,2 | B,3 C D2 | B,2 (A,2 G,2) | A,2 B,4 | C4 D2 | %18
 E4 D2 | C2 B,4 | A,4 G,2 | F,4 G,2 | A,2 B,2 C2 | B,2 C2 D2 | A,4 G,2 | G,4 G,,2 |] %26

